src/topics/icons/clusterhq.svg

<svg height="285" preserveAspectRatio="xMidYMid" viewBox="0 0 256 285" width="256" xmlns="http://www.w3.org/2000/svg"><path d="m64.1228609 37.536715 1.7292977-2.0241549 59.3220824-34.22335851 2.657699-.50603872 2.330966.10758303 59.593032 34.4305555 1.689452 2.2154136-49.304906 28.36606c-8.343662 4.0961245-20.727665 4.0921399-29.067342-.0039845z" fill="#c1eae2" transform="matrix(1 0 0 -1 0 69.75604)"/><path d="m.29783128 195.864675c.62955998-9.256126 6.80960761-19.966614 14.51574052-25.142554l49.3088907-28.374029 1.1156759 2.649731v68.398902l-1.1156759 2.458472-1.7253131 2.311043-59.91578098 34.577984-2.04806221-.131491z" fill="#a5e0d3" transform="matrix(1 0 0 -1 0 395.092316)"/><path d="m254.935318 195.996165c-.633544-9.256125-6.813592-19.966614-14.519725-25.142553l-48.970203-28.374029-1.191383 2.478394v68.072169l1.191383 2.956541 1.868757 2.191506 59.198561 34.199451 2.56207.36658z" fill="#68bdab" transform="matrix(1 0 0 -1 0 395.223806)"/><path d="m191.44539 105.98941-63.61345-36.7535524.653467-2.9565412 58.947534-34.0599917 4.012449.2589962 1.020046 3.1079543v67.9486478z" fill="#f14831" transform="matrix(1 0 0 -1 0 138.208734)"/><path d="m240.595695 77.3711272-49.149508 28.3580908v-73.5110887l3.418749.5578379 54.823518 31.6333967.852695 1.9086027c-2.593947 4.4985646-6.080434 8.4631987-9.945454 11.0531606" fill="#e92023" transform="matrix(1 0 0 -1 0 137.947348)"/><path d="m255.073981 71.627787.067737 56.748058c-.31478 4.626071-2.008216 9.61872-4.598178 14.105331l-59.098947-34.099837 1.322873-2.295105 59.521309-34.3827404z" fill="#c13722" transform="matrix(1 0 0 -1 0 214.108964)"/><path d="m191.44539 179.235526 63.629388-36.753553-63.629388-36.753552-2.020171 3.183661v66.908678z" fill="#a9371e" transform="matrix(1 0 0 -1 0 284.963946)"/><path d="m64.1228609 252.548183 3.4426571.195244 58.30602-33.705366 1.960402-3.319136-1.5739-2.123769-59.6886612-34.362818-2.4465179-.191259z" fill="#f25257" transform="matrix(1 0 0 -1 0 431.784506)"/><path d="m113.308629 219.136878c4.163862-2.040094 9.343786-3.072094 14.523709-3.072094l.673391 1.725313v64.597636l-.673391 1.805004-63.7090786-36.677846z" fill="#f57590" transform="matrix(1 0 0 -1 0 500.257522)"/><path d="m127.830745 284.190346v-68.123968c5.179924 0 10.343909 1.032 14.511756 3.076078l49.101693 28.370045-1.263104 1.729297-60.28236 34.753305z" fill="#f15051" transform="matrix(1 0 0 -1 0 500.256724)"/><path d="m191.44539 251.384693-2.020171 1.358734-59.939688-34.701506-1.653591-3.486487 63.61345-36.677845z" fill="#ec402c" transform="matrix(1 0 0 -1 0 430.621016)"/><path d="m64.1228609 32.3053911 2.3668268-.0876603 59.8480433 34.5261849 1.494209 2.3150275-63.7090791 36.7575368-1.3388111-1.534054-.1633668-68.8451733z" fill="#f36375" transform="matrix(1 0 0 -1 0 138.03421)"/><path d="m14.9861031 77.4667566 49.1375548 28.3580904v-73.5110883l-3.3669506-.0956294-53.83136266 31.0875123-1.85680348 3.1079544c2.5939465 4.4985646 6.05254184 8.4631986 9.91756194 11.0531606" fill="#f25749" transform="matrix(1 0 0 -1 0 138.042976)"/><path d="m5.06973653 142.482372c-2.58996194-4.486611-4.25152213-9.479261-4.56630212-14.105331l-.06773747-56.7480586 4.04034062.2988417 58.11077674 33.5340299 1.5380389 2.920681z" fill="#f14926" transform="matrix(1 0 0 -1 0 214.111354)"/><path d="m64.1228609 179.235924-63.68915623-36.753552 63.68915623-36.753552 1.6137456 2.685591v66.908678z" fill="#ef3844" transform="matrix(1 0 0 -1 0 284.964744)"/><path d="m127.830745 68.9720799-2.322997.071722-59.3260665 34.2074201-2.0600159 2.454487 63.7090794 36.757537.872618-3.19163v-68.2355357z" fill="#9b3940" transform="matrix(1 0 0 -1 0 211.435326)"/><path d="m64.1228609 179.235924 63.7090791-36.733629-1.577885-2.295105-59.2702823-34.115776-2.8609118-.362594z" fill="#b62b22" transform="matrix(1 0 0 -1 0 284.964744)"/><path d="m127.830745 216.06598 1.287011-2.418626v-68.729621l-1.287011-2.454487-63.7090794 36.829259z" fill="#842921" transform="matrix(1 0 0 -1 0 358.529226)"/><path d="m127.830745 142.463644 63.613449 36.829259-1.553977 2.24729-58.780182 33.976316-3.27929.549869z" fill="#a01f20" transform="matrix(1 0 0 -1 0 358.530022)"/><path d="m191.44539 179.235526-4.550364-.677375-57.871704-33.418478-1.191382-2.637777 63.61345-36.773475z" fill="#7d2629" transform="matrix(1 0 0 -1 0 284.963946)"/><path d="m127.830745 68.9720799 63.613449 36.7336291-63.613449 36.757537z" fill="#7c253b" transform="matrix(1 0 0 -1 0 211.435326)"/><path d="m127.830745 188.430289-39.805723-22.97097v-45.945925l39.805723-22.9749546 39.7858 22.9749546v45.945925z" fill="#b6e6db" transform="matrix(1 0 0 -1 0 284.968728)"/><g transform="matrix(1 0 0 -1 0 307.941292)"><path d="m127.830745 165.478046-39.805723 22.955032v-45.945925l39.805723-22.978939 1.741251 3.33109v39.845568z" fill="#a5e0d3"/><path d="m127.830745 165.478046 39.7858 22.955032v-45.945925l-39.7858-22.978939z" fill="#68bdab"/></g></svg>

<?xml version="1.0" encoding="UTF-8" standalone="no"?>
<svg width="256px" height="285px" viewBox="0 0 256 285" version="1.1" xmlns="http://www.w3.org/2000/svg" preserveAspectRatio="xMidYMid">
	<g>
		<path d="M64.1228609,37.536715 L65.8521586,35.5125601 L125.174241,1.28920159 L127.83194,0.783162869 L130.162906,0.890745903 L189.755938,35.3213014 L191.44539,37.536715 L142.140484,65.902775 C133.796822,69.9988995 121.412819,69.9949149 113.073142,65.8987905 L64.1228609,37.536715 L64.1228609,37.536715 Z" fill="#C1EAE2" transform="translate(127.784125, 34.878020) scale(1, -1) translate(-127.784125, -34.878020) "></path>
		<path d="M0.297831278,195.864675 C0.927391256,186.608549 7.10743889,175.898061 14.8135718,170.722121 L64.1224625,142.348092 L65.2381384,144.997823 L65.2381384,213.396725 L64.1224625,215.855197 L62.3971494,218.16624 L2.48136842,252.744224 L0.43330621,252.612733 L0.297831278,195.864675 L0.297831278,195.864675 Z" fill="#A5E0D3" transform="translate(32.767985, 197.546158) scale(1, -1) translate(-32.767985, -197.546158) "></path>
		<path d="M254.935318,195.996165 C254.301774,186.74004 248.121726,176.029551 240.415593,170.853612 L191.44539,142.479583 L190.254007,144.957977 L190.254007,213.030146 L191.44539,215.986687 L193.314147,218.178193 L252.512708,252.377644 L255.074778,252.744224 L254.935318,195.996165 L254.935318,195.996165 Z" fill="#68BDAB" transform="translate(222.664392, 197.611903) scale(1, -1) translate(-222.664392, -197.611903) "></path>
		<path d="M191.44539,105.98941 L127.83194,69.2358576 L128.485407,66.2793164 L187.432941,32.2193247 L191.44539,32.4783209 L192.465436,35.5862752 L192.465436,103.534923 L191.44539,105.98941 L191.44539,105.98941 Z" fill="#F14831" transform="translate(160.148688, 69.104367) scale(1, -1) translate(-160.148688, -69.104367) "></path>
		<path d="M240.595695,77.3711272 L191.446187,105.729218 L191.446187,32.2181293 L194.864936,32.7759672 L249.688454,64.4093639 L250.541149,66.3179666 C247.947202,70.8165312 244.460715,74.7811653 240.595695,77.3711272" fill="#E92023" transform="translate(220.993668, 68.973674) scale(1, -1) translate(-220.993668, -68.973674) "></path>
		<path d="M255.073981,71.627787 L255.141718,128.375845 C254.826938,133.001916 253.133502,137.994565 250.54354,142.481176 L191.444593,108.381339 L192.767466,106.086234 L252.288775,71.7034936 L255.073981,71.627787 L255.073981,71.627787 Z" fill="#C13722" transform="translate(223.293155, 107.054482) scale(1, -1) translate(-223.293155, -107.054482) "></path>
		<path d="M191.44539,179.235526 L255.074778,142.481973 L191.44539,105.728421 L189.425219,108.912082 L189.425219,175.82076 L191.44539,179.235526 L191.44539,179.235526 Z" fill="#A9371E" transform="translate(222.249998, 142.481973) scale(1, -1) translate(-222.249998, -142.481973) "></path>
		<path d="M64.1228609,252.548183 L67.565518,252.743427 L125.871538,219.038061 L127.83194,215.718925 L126.25804,213.595156 L66.5693788,179.232338 L64.1228609,179.041079 L64.1228609,252.548183 L64.1228609,252.548183 Z" fill="#F25257" transform="translate(95.977400, 215.892253) scale(1, -1) translate(-95.977400, -215.892253) "></path>
		<path d="M113.308629,219.136878 C117.472491,217.096784 122.652415,216.064784 127.832338,216.064784 L128.505729,217.790097 L128.505729,282.387733 L127.832338,284.192737 L64.1232594,247.514891 L113.308629,219.136878 L113.308629,219.136878 Z" fill="#F57590" transform="translate(96.314494, 250.128761) scale(1, -1) translate(-96.314494, -250.128761) "></path>
		<path d="M127.830745,284.190346 L127.830745,216.066378 C133.010669,216.066378 138.174654,217.098378 142.342501,219.142456 L191.444194,247.512501 L190.18109,249.241798 L129.89873,283.995103 L127.830745,284.190346 L127.830745,284.190346 Z" fill="#F15051" transform="translate(159.637469, 250.128362) scale(1, -1) translate(-159.637469, -250.128362) "></path>
		<path d="M191.44539,251.384693 L189.425219,252.743427 L129.485531,218.041921 L127.83194,214.555434 L191.44539,177.877589 L191.44539,251.384693 L191.44539,251.384693 Z" fill="#EC402C" transform="translate(159.638665, 215.310508) scale(1, -1) translate(-159.638665, -215.310508) "></path>
		<path d="M64.1228609,32.3053911 L66.4896877,32.2177308 L126.337731,66.7439157 L127.83194,69.0589432 L64.1228609,105.81648 L62.7840498,104.282426 L62.620683,35.4372527 L64.1228609,32.3053911 L64.1228609,32.3053911 Z" fill="#F36375" transform="translate(95.226312, 69.017105) scale(1, -1) translate(-95.226312, -69.017105) "></path>
		<path d="M14.9861031,77.4667566 L64.1236579,105.824847 L64.1236579,32.3137587 L60.7567073,32.2181293 L6.92534464,63.3056416 L5.06854116,66.413596 C7.66248766,70.9121606 11.121083,74.8767946 14.9861031,77.4667566" fill="#F25749" transform="translate(34.596100, 69.021488) scale(1, -1) translate(-34.596100, -69.021488) "></path>
		<path d="M5.06973653,142.482372 C2.47977459,137.995761 0.818214399,133.003111 0.50343441,128.377041 L0.435696944,71.6289824 L4.47603756,71.9278241 L62.5868143,105.461854 L64.1248532,108.382535 L5.06973653,142.482372 L5.06973653,142.482372 Z" fill="#F14926" transform="translate(32.280275, 107.055677) scale(1, -1) translate(-32.280275, -107.055677) "></path>
		<path d="M64.1228609,179.235924 L0.433704666,142.482372 L64.1228609,105.72882 L65.7366065,108.414411 L65.7366065,175.323089 L64.1228609,179.235924 L64.1228609,179.235924 Z" fill="#EF3844" transform="translate(33.085156, 142.482372) scale(1, -1) translate(-33.085156, -142.482372) "></path>
		<path d="M127.830745,68.9720799 L125.507748,69.0438019 L66.1816815,103.251222 L64.1216656,105.705709 L127.830745,142.463246 L128.703363,139.271616 L128.703363,71.0360803 L127.830745,68.9720799 L127.830745,68.9720799 Z" fill="#9B3940" transform="translate(96.412514, 105.717663) scale(1, -1) translate(-96.412514, -105.717663) "></path>
		<path d="M64.1228609,179.235924 L127.83194,142.502295 L126.254055,140.20719 L66.9837727,106.091414 L64.1228609,105.72882 L64.1228609,179.235924 L64.1228609,179.235924 Z" fill="#B62B22" transform="translate(95.977400, 142.482372) scale(1, -1) translate(-95.977400, -142.482372) "></path>
		<path d="M127.830745,216.06598 L129.117756,213.647354 L129.117756,144.917733 L127.830745,142.463246 L64.1216656,179.292505 L127.830745,216.06598 L127.830745,216.06598 Z" fill="#842921" transform="translate(96.619711, 179.264613) scale(1, -1) translate(-96.619711, -179.264613) "></path>
		<path d="M127.830745,142.463644 L191.444194,179.292903 L189.890217,181.540193 L131.110035,215.516509 L127.830745,216.066378 L127.830745,142.463644 L127.830745,142.463644 Z" fill="#A01F20" transform="translate(159.637469, 179.265011) scale(1, -1) translate(-159.637469, -179.265011) "></path>
		<path d="M191.44539,179.235526 L186.895026,178.558151 L129.023322,145.139673 L127.83194,142.501896 L191.44539,105.728421 L191.44539,179.235526 L191.44539,179.235526 Z" fill="#7D2629" transform="translate(159.638665, 142.481973) scale(1, -1) translate(-159.638665, -142.481973) "></path>
		<path d="M127.830745,68.9720799 L191.444194,105.705709 L127.830745,142.463246 L127.830745,68.9720799 L127.830745,68.9720799 Z" fill="#7C253B" transform="translate(159.637469, 105.717663) scale(1, -1) translate(-159.637469, -105.717663) "></path>
		<path d="M127.830745,188.430289 L127.830745,188.430289 L88.025022,165.459319 L88.025022,119.513394 L127.830745,96.5384394 L167.616545,119.513394 L167.616545,165.459319 L127.830745,188.430289 L127.830745,188.430289 Z" fill="#B6E6DB" transform="translate(127.820783, 142.484364) scale(1, -1) translate(-127.820783, -142.484364) "></path>
		<path d="M127.830745,165.478046 L88.025022,188.433078 L88.025022,142.487153 L127.830745,119.508214 L129.571996,122.839304 L129.571996,162.684872 L127.830745,165.478046 L127.830745,165.478046 Z" fill="#A5E0D3" transform="translate(108.798509, 153.970646) scale(1, -1) translate(-108.798509, -153.970646) "></path>
		<path d="M127.830745,165.478046 L167.616545,188.433078 L167.616545,142.487153 L127.830745,119.508214 L127.830745,165.478046 L127.830745,165.478046 Z" fill="#68BDAB" transform="translate(147.723645, 153.970646) scale(1, -1) translate(-147.723645, -153.970646) "></path>
	</g>
</svg>
